X:1
T:Sechs Gesänge
T:Morgenlied
T:Felix Mendelssohn Satz: Hermann Bönicke
T:Johann Heinrich Voß
T:Morgenlied
T:nach Op. 86,2
T:CPDL - Creative Commons Attribution Non Commercial 3.0
T:CPDL - Creative Commons Attribution Non Commercial 3.0
C:Felix Mendelssohn
Z:Johann Heinrich Voß
Z:CPDL - Creative Commons Attribution Non Commercial 3.0
%%score [ ( 1 2 ) 3 4 ]
L:1/8
Q:1/4=100
M:4/4
K:D
V:1 treble nm="Sopran\nAlt"
V:2 treble 
V:3 treble-8 nm="Tenor"
V:4 bass nm="Bass"
V:1
"^Lebhaft"!p! A2 | d2 F2!<(! G2 ^G2!<)! |!>(! ^G4!>)! A2 ^A2 |!<(! B2 B2!<)! e3 d | %4
w: 1.   Er-|wacht in neu- er|Stär- ke, be-|grüß' ich, Gott, dein|
w: 2.  Von|Ju- bel- lie- dern|schal- len schon|Feld, Ge- büsch und|
w: 3. Schon|hö- her schwebt die|Son- ne in|ih- rem Sie- ges-|
!>(! (d4 c2)!>)! c2 | d2 d2 c2 B2 | A4 ^G2 fe | e3 A!>(! c2 B2!>)! | A4 z2 A2 | %9
w: Licht, _ und|wend' auf dei- ne|Wer- ke mein _|fro- hes An- ge-|sicht. Wie|
w: Luft, _ und|aus des Wal- des|Hal- len strömt _|frisch der Mor- gen-|duft. Das|
w: lauf, _ was|lebt, das at- met|Won- ne, und _|was da schlief, wacht|auf. O|
!<(! d2 c2!<)! B2 A2 |!f! g2 f2 e2 dc | d3 d ed cB | (A2!>(! f4)!>)! e2 |1 d4 z2 :|2 d6 d2 || %15
w: herr- lich strahlt die|Sonn' em- por und _|weckt des Le- * bens _|lau- * ten|Chor!||
w: Vög- lein schüt- telt|ab den Tau, fliegt _|auf und singt _ im _|hel- * len|Blau.||
w: Gott, in dei- nem|Son- nen- schein, wie _|herr- lich ist's _ le- *|ben- * dig||sein, o|
 g2 f2 e2 d2 | c2 B2 A2 G2 |!<(! F2 GA B2 cd!<)! | (A2!>(! f4)!>)! e2 | d4 z4 |] %20
w: Gott, in dei- nem|Son- nen- schein, wie|herr- lich _ ist's le- *|ben- * dig|sein!|
w: |||||
w: |||||
V:2
 A2 | F2 D2 E2 ^E2 | ^E4 F2 =E2 | D2 D2 E3 E | F6 E2 | D2 B2 ^A2 F2 | D4 D2 ^G2 | A3 E A2 ^G2 | %8
w: ||||||||
w: ||||||||
w: ||||||||
 E4 x2 C2 | D2 G2 F2 E2 | D2 F2 B2 E2 | D2 A2 G2 G2 | (F2 A4) G2 |1 F4 x2 :|2 F6 F2 || %15
w: |||weckt des * *||||
w: |||auf und * *||||
w: |||herr- lich * *||||
 G2 =c2 B2 A2 | G2 F2 E2 C2 | D2 D2 =F2 F2 | (^F2 A4) G2 | F4 x4 |] %20
w: |||||
w: |||||
w: |||||
V:3
!p! A2 | A2 d2!<(! d2 d2!<)! |!>(! d4!>)! d2 c2 |!<(! B2 B2!<)! B3 B |!>(! (B4 ^A2)!>)! A2 | %5
w: 1.   Er-|wacht in neu- er|Stär- ke, be-|grüß' ich, Gott, dein|Licht, _ und|
w: 2.  Von|Ju- bel- lie- dern|schal- len schon|Feld, Ge- büsch und|Luft, _ und|
w: 3. Schon|hö- her schwebt die|Son- ne in|ih- rem Sie- ges-|lauf, _ was|
 B2 f2 e2 d2 | B4 B2 B2 | c3 c!>(! e2 d2!>)! | c4 z2 A2 |!<(! A2 A2!<)! A2 A2 |!f! d2 c2 B2 _B2 | %11
w: wend' auf dei- ne|Wer- ke mein|fro- hes An- ge-|sicht. Wie|herr- lich strahlt die|Sonn' em- por und|
w: aus des Wal- des|Hal- len strömt|frisch der Mor- gen-|duft. Das|Vög- lein schüt- telt|ab den Tau, fliegt|
w: lebt, das at- met|Won- ne, und|was da schlief, wacht|auf. O|Gott, in dei- nem|Son- nen- schein, wie|
 A3 d =B2 d2 | (A2!>(! d4)!>)! c2 |1 A4 z2 :|2 d6 d2 || d2 d2 d2 d2 | A2 A2 A2 A2 | %17
w: weckt des Le- bens|lau- * ten|Chor!||Gott, in dei- nem|Son- nen- schein, wie|
w: auf und singt im|hel- * len|Blau.||||
w: herr- lich ist's le-|ben- * dig||sein, o|||
!<(! A2 d2 d2 cB!<)! | (A2!>(! d4)!>)! c2 | A4 z4 |] %20
w: herr- lich ist's le- *|ben- * dig|sein!|
w: |||
w: |||
V:4
!p! A,2 | D,2 D2!<(! C2 B,2!<)! |!>(! B,4!>)! A,2 F,2 |!<(! G,2 G,2!<)! G,3 G, |!>(! F,6!>)! F,2 | %5
 B,,2 B,,2 C,2 D,2 | F,4 E,2 D2 | C2 A,2!>(! E,2 E,2!>)! | A,4 z2 =G,2 |!<(! F,2 E,2!<)! D,2 C,2 | %10
!f! B,,2 A,2 ^G,2 =G,2 | F,3 F, G,2 G,2 | A,4!>(! A,,4!>)! |1 D,4 z2 :|2 B,,4 =C4 || %15
 B,2 A,2 G,2 F,2 | E,2 D,2 C,2 A,,2 |!<(! D,2 F,,2 ^G,,2 G,,2!<)! | A,,4!>(! A,4!>)! | D,4 z4 |] %20

